X: 140
T: Ayrılık Yarı Ölmekmiş
C: Selahaddin Pınar
O: Turkey
F: http://compmusic.upf.edu/node/140
N: nisaburek--sarki--duyek--ayrilik_yari--selahaddin_pinar
N: makam= nisaburek
N: form= sarki
N: usul= duyek = 8/4
M: 8/4
L: 1/16
K: C ^9/8f ^3/4c ^3/4g 
Q: 1/4=144
%%MIDI tuningsystem comma53
AB AB c2 d2 c3A B2 A2  | f3d f2 e2 =gf ed ^c^3/4B c2  | 
w:  ARANAĞME  |   | 
f2 =g4 gf g3f g2 a2  | =g2 f2 e2 d2 c2 B2 A4  | \
w:   |   | 
AB AB c2 d2 c3A B2 A2  | 
w:  ARANAĞME  | 
f3d f2 e2 =gf ed ^c^3/4B c2  | f2 =g4 gf g3f g2 a2  | \
w:   |   | 
=g2 f2 e2 d2 c2 B2 A4  | 
w:   | 
z2 A4 B2 c2 B2 B2 B2  | c2 d4 c2 c3B A2 GF  | \
w:  Ay rı lık  *  ya rı   |  öl *  *  mek *  miş    | 
E2 A4 B2 c2 B2 B2 B2  | 
w:  *  Ay rı lık  *  ya rı   | 
c2 d4 c2 c3B A4  | c2 d4 c2 ed cB B4  | \
w:  öl *  *  mek *  miş    |  O  bir  a lev *  *  *  den   | 
z2 =g2 f2 e2 e4 e4  | e6 f2 d2 f2 f4  | 
w:  göm *  *  lek miş    |  Ah  o  a le vin   | 
=g2 f2 e2 d2 c2 c2 c4  | =g2 f2 g3f g2 a2 gf e2  | \
w:  bağ *  rım *  da  di li    |  Ben  *  böy le  sen  *  siz   | 
a2 a2 =g2 f2 {g}f2 e2 {f}e2 e2  | 
w:  o lu rum  *  *  *  *  *  de li    | 
z2 d2 c2 B2 B2 A2 A2 B2  | c2 d4 c2 {d}c2 B2 {c}B2 A2  | \
w:  Ner *  de sin  *  ey   |  sev *  *  *  *  *  *  gi li    | 
z2 d2 c2 B2 B2 A2 A2 B2  | 
w:  Ner *  de sin  *  ey   | 
c2 d4 c2 {d}c2 B2 {c}B2 A2  | f3d f2 e2 =gf ed cB A2  | \
w:  sev *  *  *  *  *  *  gi li    |  SAZ  | 
a2 g2 ^2/4f2 e2 d2 {g}fe e4  | 
w:   | 
e4 e2 e2 e2 ^2/4f2 f2 e2  | g2 a4 g2 ^2/4f2 e2 e2 e2  | \
w:  Hâ tı ra lar *  da   |  u yut *  mam  *  se ni    | 
e4 e2 e2 e2 ^2/4f2 f2 e2  | 
w:  Hâ tı ra lar *  da   | 
g2 a4 g2 ^2/4f2 e2 e2 e2  | g2 a4 g^2/4f g4 a4  | \
w:  u yut *  mam  *  se ni    |  Se ni  u *  nut mam   | 
b2 b2 {c'}b2 a2 a2 g^2/4f g2 a2  | 
w:  u nut *  *  *  mam  *  *  se ni    | 
z2 b2 a2 g2 ^2/4f2 e2 e2 e2  | ^2/4f4 g2 a2 a4 g4  | \
w:  Rû *  *  hum *  da  ı  |  lık  ne fe sin   | 
a2 a2 =g2 f2 e4 d4  | f6 f2 f2 ^3/4e2 f4  | 
w:  ku la ğı mı  ok şar   |  *  se sin    | 
=g2 f2 g2 f2 a8  | e2 e4 e2 e2 {g}^1/4fe d4  | \
w:  Ben *  den_ u zak   |  be nim le sin    | 
e2 ^2/4f2 g2 a2 b2 a2 =g2 ^9/8f2  | \
w:  Ar *  tık  ha yal   | 
e2 d2 c2 c2 c8  | 
w:  *  *  mi  ne sin    | 
=g2 f2 g2 f2 g2 a2 gf e2  | z2 a2 =g2 f2 {g}f2 e2 {f}e2 e2  | \
w:  Ey  *  sev *  *  *  gi *  li   |  ner *  *  *  *  *  *  de sin    | 
z2 d2 c2 B2 B2 A2 A2 B2  | 
w:  Ner *  de sin  *  ey   | 
c2 d4 c2 {d}c2 B2 {c}B2 A2  | z2 d2 c2 B2 B2 A2 A2 B2  | \
w:  sev *  *  *  *  *  *  gi li   |  Ner *  de sin  *  ey   | 
c2 d4 c2 {d}c2 B2 {c}B2 A2  | 
w:  sev *  *  *  *  *  *  gi li   | 
z2 A4 B2 c2 B2 B2 B2  | c2 d4 c2 c3B A2 GF  | \
w:  Ay rı lık  *  ya rı  |  öl *  *  mek *  miş    | 
E2 A4 B2 c2 B2 B2 B2  | 
w:  Ay rı lık  *  ya rı   | 
c2 d4 c2 c3B A4  | |


